agir/front/components/genericComponents/images/group_links.svg

<svg width="186" height="160" viewBox="0 0 186 160" fill="none" xmlns="http://www.w3.org/2000/svg">
<g clip-path="url(#clip0)">
<path d="M185.067 77.7326C185.067 113.329 153.76 143.336 111.041 152.548C104.104 154.04 97.0554 154.962 89.9674 155.303C89.6227 155.32 89.2778 155.337 88.9306 155.349C87.0859 155.426 85.2274 155.464 83.3549 155.465C80.0992 155.465 76.882 155.349 73.7033 155.118C71.94 154.992 70.1914 154.832 68.4576 154.637C51.5951 152.745 36.0773 147.692 22.9705 140.288C21.3328 139.364 19.7336 138.403 18.173 137.406C15.3154 135.586 12.5565 133.615 9.908 131.502C-7.59972 117.543 6.99706 87.7455 16.1215 68.9862C40.7491 18.3552 27.1818 0 83.3549 0C139.528 0 185.067 34.8011 185.067 77.7326Z" fill="#F2F2F2"/>
<path d="M144.81 32.0459C127.351 31.7326 127.354 5.77573 144.811 5.46509C162.269 5.77828 162.266 31.7352 144.81 32.0459Z" fill="white"/>
<path d="M111.792 70.7275C94.3333 70.4143 94.3361 44.4574 111.793 44.1467C129.251 44.4599 129.249 70.4168 111.792 70.7275Z" fill="white"/>
<path d="M146.234 110.006C128.775 109.693 128.778 83.7362 146.234 83.4255C163.693 83.7387 163.69 109.696 146.234 110.006Z" fill="white"/>
<path d="M144.81 32.0459C127.351 31.7326 127.354 5.77573 144.811 5.46509C162.269 5.77828 162.266 31.7352 144.81 32.0459ZM144.81 6.27055C128.409 6.56483 128.412 30.9485 144.811 31.2404C161.211 30.9461 161.208 6.56243 144.81 6.27055Z" fill="#E6E6E6"/>
<path d="M68.3962 154.453C68.357 154.327 68.3298 154.199 68.3151 154.068L63.2441 125.143C63.2366 125.069 63.2252 124.995 63.2098 124.922C63.1024 124.394 62.835 123.913 62.444 123.544C62.053 123.174 61.5576 122.934 61.0253 122.857L32.11 122.983C31.5629 122.901 31.0039 122.996 30.5147 123.254C30.0255 123.513 29.6318 123.921 29.3911 124.419C28.9208 125.4 28.4602 126.394 28.0095 127.403C26.1846 131.465 24.505 135.761 22.9707 140.288C36.0776 147.692 51.5954 152.745 68.4578 154.637L68.3962 154.453Z" fill="#571AFF"/>
<path d="M96.6218 77.0497C96.5507 77.3625 96.5043 77.6803 96.4832 78.0003L71.5957 92.3638L65.5465 88.8799L59.0977 97.3259L69.2075 104.535C70.0243 105.117 71.0078 105.419 72.0105 105.394C73.0131 105.37 73.9808 105.021 74.7682 104.399L100.431 84.1447C101.59 84.5736 102.851 84.6396 104.047 84.3339C105.244 84.0282 106.319 83.3653 107.13 82.4333C107.941 81.5014 108.449 80.3446 108.586 79.1168C108.724 77.8889 108.484 76.6483 107.9 75.5599C107.316 74.4715 106.414 73.5869 105.315 73.0238C104.215 72.4606 102.971 72.2456 101.747 72.4073C100.522 72.5691 99.3761 73.0999 98.4606 73.9292C97.5452 74.7584 96.9038 75.8469 96.6218 77.0497V77.0497Z" fill="#FFB8B8"/>
<path d="M71.2549 90.9288C71.1794 90.5614 71.0257 90.2146 70.8043 89.9119C70.5829 89.6092 70.2989 89.3577 69.9718 89.1746L58.5519 82.786C57.0344 81.6146 55.1146 81.093 53.2133 81.3355C51.312 81.5781 49.5844 82.5649 48.4092 84.0797C47.2341 85.5945 46.7072 87.5137 46.9443 89.4165C47.1813 91.3192 48.1629 93.0504 49.6737 94.2303L58.7785 103.689C59.0384 103.959 59.3534 104.17 59.702 104.307C60.0507 104.444 60.4248 104.505 60.799 104.485C61.1731 104.464 61.5385 104.363 61.8703 104.189C62.202 104.015 62.4923 103.771 62.7214 103.474L64.4945 101.173L65.1004 100.39L70.7647 93.0452C70.9716 92.7771 71.1231 92.4706 71.2105 92.1434C71.3213 91.7478 71.3365 91.3315 71.2549 90.9288Z" fill="#F4ED0F"/>
<path d="M54.7204 71.4485C60.2773 65.8892 60.2773 56.8759 54.7204 51.3166C49.1634 45.7573 40.1538 45.7573 34.5969 51.3166C29.0399 56.8759 29.0399 65.8892 34.5969 71.4485C40.1538 77.0078 49.1634 77.0078 54.7204 71.4485Z" fill="#FFB8B8"/>
<path d="M62.6504 115.264C63.2218 114.409 66.8543 108.638 65.4801 101.875C65.3792 101.374 65.2526 100.878 65.1008 100.39C64.4532 98.3538 63.4188 96.4624 62.0544 94.8189C62.0717 94.3656 62.0667 93.9197 62.0397 93.4762V93.4737C61.8389 90.3923 60.5321 87.4872 58.3599 85.2933C56.1878 83.0995 53.2965 81.7645 50.2184 81.5342L34.304 80.3245C32.2556 80.1573 30.1973 80.4907 28.3062 81.2959C26.4151 82.101 24.748 83.3539 23.4482 84.9465C23.1488 85.3095 22.8685 85.6878 22.6083 86.0799C22.608 86.0799 22.6077 86.0799 22.6074 86.0801C22.6071 86.0802 22.6068 86.0804 22.6066 86.0806C22.6064 86.0808 22.6062 86.0811 22.6061 86.0814C22.606 86.0817 22.6059 86.082 22.6059 86.0823C21.6025 87.5974 20.9366 89.3107 20.6536 91.106C20.3706 92.9013 20.477 94.7365 20.9657 96.4869L21.1012 97.0832L22.798 104.526L25.6351 116.981L28.0092 127.403L28.2604 128.501C28.3928 129.077 28.7161 129.591 29.1776 129.959C29.6391 130.327 30.2116 130.528 30.8019 130.529C30.9439 130.53 31.0856 130.518 31.2256 130.495L62.0199 125.444C62.4545 125.374 62.8641 125.194 63.2095 124.922C63.4168 124.756 63.5986 124.561 63.7488 124.343C63.9495 124.052 64.0884 123.724 64.157 123.378C64.2256 123.031 64.2225 122.675 64.1477 122.33L62.6504 115.264Z" fill="#F4ED0F"/>
<path d="M2.0456 157.301C1.52328 156.556 1.17067 155.705 1.0126 154.808C0.854538 153.912 0.894859 152.992 1.13073 152.113C1.36659 151.234 1.79227 150.417 2.37778 149.72C2.96328 149.023 3.69437 148.463 4.51954 148.08L22.0527 94.1506L32.2136 98.974L13.0295 151.484C13.5816 152.914 13.5903 154.496 13.0541 155.932C12.5179 157.368 11.4739 158.556 10.12 159.273C8.76611 159.99 7.19635 160.186 5.70818 159.822C4.22002 159.459 2.91684 158.562 2.0456 157.301Z" fill="#FFB8B8"/>
<path d="M32.0951 81.4112C30.2168 80.8458 28.1941 81.0131 26.4341 81.8793C24.674 82.7456 23.3072 84.2464 22.6086 86.0801C22.6082 86.0801 22.6079 86.0801 22.6076 86.0803C22.6073 86.0804 22.607 86.0806 22.6068 86.0808C22.6066 86.081 22.6064 86.0813 22.6063 86.0816C22.6062 86.0819 22.6061 86.0822 22.6061 86.0825C22.5421 86.2476 22.483 86.4201 22.4313 86.5925L20.9462 89.7437L16.4591 99.2663C16.2876 99.6291 16.1963 100.025 16.1916 100.426C16.1869 100.827 16.2688 101.225 16.4317 101.592C16.5947 101.958 16.8348 102.286 17.1358 102.551C17.4368 102.817 17.7914 103.014 18.1756 103.13L19.0499 103.393L22.7982 104.526L29.4502 106.537L31.6666 107.207C32.0507 107.323 32.4552 107.355 32.8526 107.301C33.2501 107.246 33.6312 107.107 33.9698 106.891C34.3085 106.676 34.5968 106.391 34.8152 106.054C35.0335 105.717 35.1768 105.337 35.2351 104.94L37.2842 91.0348C37.8664 89.0702 37.6473 86.955 36.6749 85.1516C35.7025 83.3482 34.0559 82.0034 32.0951 81.4112Z" fill="#F4ED0F"/>
<path d="M57.7244 56.2059C52.654 60.6431 44.8701 61.6734 38.8207 58.7081C41.5382 61.9332 46.6989 77.8536 46.6989 77.8536C46.6989 77.8536 32.127 76.3215 30.0682 75.8811C17.9082 73.2797 22.3282 41.7743 35.2854 41.9334C37.48 41.9603 39.3985 42.2258 40.8591 43.8645C41.8286 41.1458 44.9115 39.5443 47.7894 39.7516C50.6673 39.9589 53.2699 41.6883 55.1213 43.9023C56.5987 45.6947 57.6651 47.7896 58.2453 50.0391C58.8255 52.2886 58.9054 54.6381 58.4794 56.9219L57.7244 56.2059Z" fill="#571AFF"/>
<path d="M111.792 70.7275C94.3333 70.4143 94.3361 44.4574 111.793 44.1467C129.251 44.4599 129.249 70.4168 111.792 70.7275ZM111.792 44.9522C95.3915 45.2465 95.3941 69.6301 111.793 69.922C128.193 69.6277 128.191 45.2441 111.792 44.9522Z" fill="#E6E6E6"/>
<path d="M146.234 110.006C128.775 109.693 128.778 83.7362 146.234 83.4255C163.693 83.7387 163.69 109.696 146.234 110.006ZM146.234 84.231C129.833 84.5253 129.835 108.909 146.234 109.201C162.635 108.907 162.632 84.5229 146.234 84.231Z" fill="#E6E6E6"/>
<path d="M147.648 11.9427C144.372 12.0369 138.003 10.8657 138 15.9173C138.094 19.1937 136.923 25.5653 141.973 25.5686C145.248 25.4746 151.617 26.6458 151.62 21.5942C151.526 18.3178 152.697 11.9462 147.648 11.9427Z" fill="#571AFF"/>
<path d="M148.499 15.917C147.396 15.9309 147.4 14.1987 148.502 14.2174C149.604 14.2038 149.601 15.9356 148.499 15.917Z" fill="white"/>
<path d="M144.81 16.4845C147.756 16.4412 147.756 21.0703 144.81 21.0267C141.865 21.0695 141.865 16.4413 144.81 16.4845ZM144.81 15.3491C140.393 15.2845 140.392 22.2272 144.811 22.1621C149.229 22.2267 149.228 15.284 144.81 15.3491V15.3491Z" fill="white"/>
<path d="M122.252 98.9568C122.172 98.9591 122.094 98.9377 122.026 98.8954C121.959 98.8531 121.906 98.7917 121.873 98.7191C121.841 98.6465 121.83 98.5658 121.844 98.4874C121.857 98.4089 121.894 98.3362 121.948 98.2785L123.289 96.8617C123.33 96.8172 123.353 96.7579 123.351 96.6968C123.35 96.6356 123.324 96.5776 123.28 96.5355L121.856 95.1874C121.816 95.1502 121.785 95.1055 121.762 95.056C121.74 95.0065 121.728 94.9531 121.727 94.8988C121.725 94.8446 121.734 94.7906 121.754 94.74C121.773 94.6893 121.802 94.643 121.84 94.6036C121.915 94.5246 122.018 94.4784 122.127 94.475C122.236 94.4717 122.341 94.5115 122.421 94.5857L124.337 96.3765C124.375 96.4118 124.405 96.4542 124.426 96.5014C124.447 96.5485 124.459 96.5994 124.461 96.6511C124.462 96.7028 124.453 96.7542 124.434 96.8024C124.416 96.8507 124.388 96.8947 124.352 96.9321L122.531 98.8334C122.458 98.9097 122.357 98.9541 122.252 98.9568Z" fill="#CCCCCC"/>
<path d="M120.788 96.895C120.744 96.9353 120.687 96.9583 120.628 96.9599L116.162 97.0831C116.129 97.084 116.097 97.0785 116.067 97.067C116.036 97.0555 116.009 97.0381 115.985 97.0159C115.962 96.9936 115.943 96.967 115.93 96.9374C115.916 96.9078 115.909 96.876 115.908 96.8436C115.907 96.8113 115.913 96.779 115.924 96.7488C115.936 96.7186 115.953 96.6909 115.976 96.6674C115.998 96.6439 116.025 96.625 116.054 96.6118C116.084 96.5986 116.116 96.5914 116.148 96.5906L120.614 96.4674C120.664 96.466 120.714 96.4799 120.756 96.5074C120.798 96.5348 120.83 96.5745 120.849 96.621C120.868 96.6675 120.872 96.7186 120.861 96.7676C120.85 96.8166 120.825 96.861 120.788 96.895Z" fill="#CCCCCC"/>
<path d="M87.773 59.678C87.6935 59.6803 87.6151 59.6589 87.5477 59.6166C87.4804 59.5743 87.4271 59.5129 87.3946 59.4403C87.3621 59.3676 87.352 59.287 87.3653 59.2086C87.3787 59.1301 87.4151 59.0574 87.4698 58.9997L88.81 57.5829C88.852 57.5384 88.8746 57.4791 88.8729 57.4179C88.8712 57.3568 88.8454 57.2988 88.801 57.2567L87.3771 55.9086C87.3378 55.8713 87.3061 55.8267 87.284 55.7772C87.2619 55.7276 87.2497 55.6742 87.2482 55.62C87.2467 55.5658 87.2559 55.5118 87.2753 55.4612C87.2946 55.4105 87.3238 55.3642 87.361 55.3248C87.4361 55.2458 87.5393 55.1996 87.6482 55.1962C87.7571 55.1929 87.863 55.2326 87.9428 55.3069L89.8583 57.0977C89.8961 57.133 89.9264 57.1754 89.9477 57.2226C89.9689 57.2697 89.9806 57.3206 89.982 57.3723C89.9834 57.4239 89.9746 57.4754 89.956 57.5236C89.9374 57.5719 89.9094 57.6159 89.8736 57.6532L88.0523 59.5546C87.9791 59.6309 87.8787 59.6753 87.773 59.678Z" fill="#CCCCCC"/>
<path d="M86.3092 57.6159C86.2655 57.6562 86.2086 57.6793 86.1492 57.6808L81.683 57.804C81.6507 57.8049 81.6185 57.7995 81.5882 57.7879C81.558 57.7764 81.5303 57.759 81.5068 57.7368C81.4833 57.7146 81.4644 57.6879 81.4512 57.6583C81.4379 57.6288 81.4307 57.5969 81.4298 57.5646C81.4289 57.5322 81.4344 57.5 81.446 57.4697C81.4575 57.4395 81.4749 57.4118 81.4972 57.3883C81.5195 57.3648 81.5461 57.346 81.5757 57.3328C81.6052 57.3196 81.6371 57.3124 81.6695 57.3115L86.1357 57.1883C86.1858 57.1869 86.2352 57.2009 86.2772 57.2283C86.3191 57.2558 86.3518 57.2954 86.3706 57.3419C86.3895 57.3884 86.3937 57.4396 86.3827 57.4885C86.3718 57.5375 86.3461 57.5819 86.3092 57.6159Z" fill="#CCCCCC"/>
<path d="M120.774 20.9963C120.694 20.9986 120.616 20.9773 120.549 20.935C120.481 20.8926 120.428 20.8313 120.396 20.7586C120.363 20.686 120.353 20.6053 120.366 20.5269C120.38 20.4485 120.416 20.3758 120.471 20.318L121.811 18.9013C121.853 18.8568 121.876 18.7975 121.874 18.7363C121.872 18.6751 121.846 18.6172 121.802 18.5751L120.378 17.227C120.339 17.1897 120.307 17.145 120.285 17.0955C120.263 17.046 120.251 16.9926 120.249 16.9384C120.248 16.8842 120.257 16.8302 120.276 16.7795C120.296 16.7289 120.325 16.6825 120.362 16.6431C120.437 16.5641 120.54 16.5179 120.649 16.5146C120.758 16.5113 120.864 16.551 120.944 16.6252L122.859 18.416C122.897 18.4513 122.927 18.4938 122.949 18.5409C122.97 18.5881 122.982 18.6389 122.983 18.6906C122.984 18.7423 122.976 18.7937 122.957 18.842C122.938 18.8902 122.91 18.9343 122.875 18.9716L121.053 20.8729C120.98 20.9493 120.88 20.9936 120.774 20.9963Z" fill="#CCCCCC"/>
<path d="M119.31 18.9345C119.266 18.9748 119.21 18.9979 119.15 18.9994L114.684 19.1226C114.652 19.1235 114.619 19.1181 114.589 19.1066C114.559 19.095 114.531 19.0776 114.508 19.0554C114.484 19.0332 114.465 19.0065 114.452 18.977C114.439 18.9474 114.432 18.9155 114.431 18.8832C114.43 18.8508 114.435 18.8186 114.447 18.7883C114.458 18.7581 114.476 18.7304 114.498 18.7069C114.52 18.6834 114.547 18.6646 114.577 18.6514C114.606 18.6382 114.638 18.631 114.67 18.6301L119.137 18.5069C119.187 18.5055 119.236 18.5195 119.278 18.547C119.32 18.5744 119.353 18.614 119.372 18.6605C119.39 18.707 119.395 18.7582 119.384 18.8071C119.373 18.8561 119.347 18.9005 119.31 18.9345Z" fill="#CCCCCC"/>
<path d="M116.2 146.566C115.045 148.966 113.164 150.907 111.041 152.548C104.103 154.04 97.0548 154.962 89.9668 155.303C89.6221 155.32 89.2772 155.337 88.93 155.35C87.0854 155.426 85.2268 155.465 83.3543 155.465C80.0986 155.465 76.8814 155.35 73.7028 155.118C73.5817 154.387 73.5651 153.642 73.6535 152.906C74.0057 150.025 76.1902 147.379 79.0248 146.768C81.8595 146.157 85.0905 147.85 85.9501 150.619C86.4254 145.278 86.9697 139.714 89.8092 135.166C92.3779 131.049 96.8281 128.103 101.653 127.575C104.488 127.28 107.349 127.804 109.895 129.086C110.129 129.204 110.361 129.327 110.59 129.455C112.119 130.322 113.467 131.473 114.562 132.848C117.572 136.657 118.308 142.195 116.2 146.566Z" fill="white"/>
<path d="M110.591 129.455C110.597 129.52 110.586 129.585 110.559 129.644C110.532 129.703 110.49 129.755 110.438 129.793C101.89 136.754 94.9136 145.449 89.9675 155.303C89.6227 155.32 89.2778 155.337 88.9307 155.35C89.369 154.46 89.8238 153.58 90.295 152.708C92.7426 148.197 95.6219 143.933 98.8924 139.978C102.162 136.02 105.813 132.393 109.793 129.15C109.824 129.124 109.859 129.102 109.896 129.086C109.965 129.056 110.041 129.042 110.116 129.045C110.191 129.049 110.265 129.069 110.332 129.104C110.398 129.14 110.456 129.189 110.501 129.25C110.546 129.311 110.576 129.381 110.591 129.455Z" fill="#F2F2F2"/>
<path d="M153.447 93.3628C153.447 93.3628 152.319 94.6267 152.102 94.708C151.506 101.195 147.457 102.669 144.206 102.669C141.869 102.669 139.943 101.907 140.007 101.698C143.475 101.779 143.77 100.355 143.77 100.355C141.756 100.057 141.352 98.7412 141.352 98.7412C141.533 98.8365 141.742 98.8617 141.94 98.8122C142.138 98.7626 142.311 98.6418 142.426 98.4727C140.251 97.906 140.547 95.7822 140.547 95.7822C140.934 96.0626 141.387 96.239 141.862 96.2947C141.62 95.999 139.586 93.5599 140.81 92.296C140.882 92.4882 143 95.3732 146.539 95.1638C146.455 94.7519 146.463 94.3266 146.563 93.9183C146.663 93.51 146.852 93.1289 147.117 92.8024C147.381 92.4759 147.715 92.2121 148.094 92.03C148.472 91.8478 148.887 91.7519 149.307 91.749C151.188 91.749 151.592 92.8257 151.592 92.8257L152.937 92.0176C152.91 92.0176 152.774 93.3628 152.102 93.6313L153.447 93.3628Z" fill="#571AFF"/>
<path fill-rule="evenodd" clip-rule="evenodd" d="M119.112 57.4802C119.113 59.2386 118.486 60.9394 117.345 62.2767C116.203 63.614 114.623 64.5001 112.887 64.7755V59.6163H114.606L114.933 57.4802H112.887C112.818 55.7014 112.749 54.7035 115.019 54.9425V53.1267C111.618 52.3777 110.2 54.1024 110.581 57.4802H108.707V59.6163H110.581V64.773C101.76 63.4155 102.797 50.0642 111.732 50.0987C112.701 50.0985 113.66 50.2893 114.556 50.6601C115.451 51.031 116.265 51.5747 116.95 52.2601C117.636 52.9456 118.179 53.7594 118.55 54.655C118.921 55.5507 119.112 56.5107 119.112 57.4802Z" fill="#571AFF"/>
</g>
<defs>
<clipPath id="clip0">
<rect width="184.134" height="160" fill="white" transform="translate(0.932617)"/>
</clipPath>
</defs>
</svg>

<svg width="186" height="160" fill="none" xmlns="http://www.w3.org/2000/svg"><g clip-path="url(#a)"><path d="M185.067 77.733c0 35.596-31.307 65.603-74.026 74.815a129.916 129.916 0 0 1-22.11 2.801c-1.845.077-3.704.115-5.576.116-3.256 0-6.473-.116-9.652-.347a129.548 129.548 0 0 1-5.245-.481c-16.863-1.892-32.38-6.945-45.487-14.349a102.097 102.097 0 0 1-4.798-2.882 95.603 95.603 0 0 1-8.265-5.904c-17.508-13.959-2.91-43.757 6.214-62.516C40.748 18.356 27.181 0 83.355 0s101.712 34.801 101.712 77.733Z" fill="#F2F2F2"/><path d="M144.81 32.046c-17.459-.313-17.456-26.27.001-26.58 17.458.312 17.455 26.27-.001 26.58Zm-33.018 38.682c-17.459-.314-17.456-26.27.001-26.581 17.458.313 17.456 26.27-.001 26.58Zm34.442 39.278c-17.459-.313-17.456-26.27 0-26.58 17.459.313 17.456 26.27 0 26.58Z" fill="#fff"/><path d="M144.81 32.046c-17.459-.313-17.456-26.27.001-26.58 17.458.312 17.455 26.27-.001 26.58Zm0-25.775c-16.401.294-16.398 24.677.001 24.97 16.4-.295 16.397-24.679-.001-24.97Z" fill="#E6E6E6"/><path d="M68.396 154.453a2.068 2.068 0 0 1-.08-.385l-5.072-28.925a2.609 2.609 0 0 0-2.219-2.286l-28.915.126a2.595 2.595 0 0 0-2.719 1.436c-.47.981-.93 1.975-1.381 2.984a145.048 145.048 0 0 0-5.04 12.885c13.108 7.404 28.625 12.457 45.488 14.349l-.062-.184Z" fill="#571AFF"/><path d="M96.622 77.05c-.071.313-.118.63-.139.95L71.596 92.364l-6.05-3.484-6.448 8.446 10.11 7.209a4.632 4.632 0 0 0 5.56-.136l25.663-20.254a6.08 6.08 0 0 0 8.155-5.028 6.086 6.086 0 0 0-3.271-6.093 6.08 6.08 0 0 0-8.693 4.026Z" fill="#FFB8B8"/><path d="M71.255 90.929a2.614 2.614 0 0 0-1.283-1.754l-11.42-6.389a7.238 7.238 0 0 0-10.143 1.294 7.246 7.246 0 0 0 1.265 10.15l9.105 9.459a2.605 2.605 0 0 0 3.091.5c.332-.174.622-.418.851-.715l1.774-2.301.605-.783 5.665-7.345c.207-.268.358-.574.445-.902.111-.395.127-.811.045-1.214Z" fill="#F4ED0F"/><path d="M54.72 71.448c5.557-5.559 5.557-14.572 0-20.131-5.557-5.56-14.566-5.56-20.123 0-5.557 5.559-5.557 14.572 0 20.131 5.557 5.56 14.566 5.56 20.123 0Z" fill="#FFB8B8"/><path d="M62.65 115.264c.572-.855 4.204-6.626 2.83-13.389-.1-.501-.227-.997-.38-1.485a16.596 16.596 0 0 0-3.046-5.571c.018-.453.013-.9-.014-1.343v-.002a12.81 12.81 0 0 0-11.822-11.94l-15.914-1.21a12.677 12.677 0 0 0-10.856 4.623c-.3.362-.58.74-.84 1.133h-.001v.001l-.001.001a12.672 12.672 0 0 0-1.64 10.405l.135.596 1.697 7.443 2.837 12.455 2.374 10.422.251 1.098a2.613 2.613 0 0 0 2.966 1.994l30.794-5.051a2.589 2.589 0 0 0 1.729-1.101 2.584 2.584 0 0 0 .399-2.013l-1.498-7.066Z" fill="#F4ED0F"/><path d="M2.046 157.301a6.224 6.224 0 0 1 .332-7.581 6.215 6.215 0 0 1 2.142-1.64l17.533-53.93 10.16 4.824-19.184 52.51a6.264 6.264 0 0 1-2.909 7.789 6.253 6.253 0 0 1-8.074-1.972Z" fill="#FFB8B8"/><path d="M32.095 81.411a7.757 7.757 0 0 0-9.486 4.67h-.002v.001a6.922 6.922 0 0 0-.176.51l-1.485 3.152-4.487 9.522a2.791 2.791 0 0 0 1.717 3.864l.874.263 3.748 1.133 6.652 2.011 2.217.67a2.786 2.786 0 0 0 3.149-1.153c.217-.337.36-.717.42-1.114l2.048-13.905a7.754 7.754 0 0 0-5.189-9.624Z" fill="#F4ED0F"/><path d="M57.724 56.206c-5.07 4.437-12.854 5.467-18.903 2.502 2.717 3.225 7.878 19.146 7.878 19.146s-14.572-1.532-16.63-1.973c-12.16-2.601-7.74-34.107 5.216-33.948 2.195.027 4.114.293 5.574 1.931.97-2.718 4.052-4.32 6.93-4.112 2.878.207 5.48 1.936 7.332 4.15a15.887 15.887 0 0 1 3.358 13.02l-.755-.716Z" fill="#571AFF"/><path d="M111.792 70.728c-17.459-.314-17.456-26.27.001-26.581 17.458.313 17.456 26.27-.001 26.58Zm0-25.776c-16.4.294-16.398 24.678.001 24.97 16.4-.294 16.398-24.678-.001-24.97Zm34.442 65.054c-17.459-.313-17.456-26.27 0-26.58 17.459.313 17.456 26.27 0 26.58Zm0-25.775c-16.401.294-16.399 24.678 0 24.97 16.401-.294 16.398-24.678 0-24.97Z" fill="#E6E6E6"/><path d="M147.648 11.943c-3.276.094-9.645-1.077-9.648 3.974.094 3.277-1.077 9.648 3.973 9.652 3.275-.094 9.644 1.077 9.647-3.975-.094-3.276 1.077-9.648-3.972-9.651Z" fill="#571AFF"/><path d="M148.499 15.917c-1.103.014-1.099-1.718.003-1.7 1.102-.013 1.099 1.719-.003 1.7Zm-3.689.568c2.946-.044 2.946 4.585 0 4.542-2.945.043-2.945-4.586 0-4.543Zm0-1.136c-4.417-.065-4.418 6.878.001 6.813 4.418.065 4.417-6.878-.001-6.813Z" fill="#fff"/><path d="M122.252 98.957a.404.404 0 0 1-.379-.238.4.4 0 0 1 .075-.44l1.341-1.417a.233.233 0 0 0-.009-.326l-1.424-1.349a.405.405 0 0 1-.102-.447.413.413 0 0 1 .667-.154l1.916 1.79a.407.407 0 0 1 .124.275.392.392 0 0 1-.109.281l-1.821 1.901a.402.402 0 0 1-.279.124Zm-1.464-2.062a.247.247 0 0 1-.16.065l-4.466.123a.246.246 0 0 1-.232-.146.235.235 0 0 1-.022-.093.244.244 0 0 1 .068-.176.248.248 0 0 1 .172-.077l4.466-.124a.248.248 0 0 1 .235.154.245.245 0 0 1-.061.274ZM87.773 59.678A.402.402 0 0 1 87.47 59l1.34-1.417a.23.23 0 0 0-.009-.326l-1.424-1.348a.414.414 0 0 1 .566-.602l1.915 1.79a.39.39 0 0 1 .016.556l-1.822 1.902a.401.401 0 0 1-.279.123Zm-1.463-2.062a.245.245 0 0 1-.16.065l-4.467.123a.246.246 0 1 1-.014-.492l4.467-.124a.247.247 0 0 1 .173.428Zm34.464-36.62a.399.399 0 0 1-.378-.237.401.401 0 0 1 .075-.441l1.34-1.417a.23.23 0 0 0-.009-.326l-1.424-1.348a.417.417 0 0 1-.102-.448.413.413 0 0 1 .668-.154l1.915 1.791a.387.387 0 0 1 .098.426.409.409 0 0 1-.082.13l-1.822 1.9a.4.4 0 0 1-.279.124Zm-1.464-2.062a.245.245 0 0 1-.16.065l-4.466.124a.249.249 0 0 1-.232-.146.253.253 0 0 1-.005-.189.241.241 0 0 1 .13-.137.242.242 0 0 1 .093-.02l4.467-.124a.244.244 0 0 1 .235.153.247.247 0 0 1-.062.274Z" fill="#CCC"/><path d="M116.2 146.566c-1.155 2.4-3.036 4.341-5.159 5.982a129.938 129.938 0 0 1-22.111 2.802c-1.845.076-3.703.115-5.576.115-3.255 0-6.473-.115-9.651-.347a7.826 7.826 0 0 1-.05-2.212c.353-2.881 2.537-5.527 5.372-6.138 2.834-.611 6.066 1.082 6.925 3.851.475-5.341 1.02-10.905 3.86-15.453 2.568-4.117 7.018-7.063 11.843-7.591a14.899 14.899 0 0 1 8.242 1.511 13.74 13.74 0 0 1 4.667 3.762c3.01 3.809 3.746 9.347 1.638 13.718Z" fill="#fff"/><path d="M110.591 129.455a.371.371 0 0 1-.153.338 78.055 78.055 0 0 0-20.47 25.51c-.345.017-.69.034-1.037.047.438-.89.893-1.77 1.364-2.642a79.387 79.387 0 0 1 8.597-12.73 78.26 78.26 0 0 1 10.901-10.828.423.423 0 0 1 .103-.064.504.504 0 0 1 .695.369Z" fill="#F2F2F2"/><path d="M153.447 93.363s-1.128 1.264-1.345 1.345c-.596 6.487-4.645 7.961-7.896 7.961-2.337 0-4.263-.762-4.199-.971 3.468.081 3.763-1.343 3.763-1.343-2.014-.298-2.418-1.614-2.418-1.614a.83.83 0 0 0 1.074-.268c-2.175-.567-1.879-2.69-1.879-2.69.387.28.84.456 1.315.512-.242-.296-2.276-2.735-1.052-3.999.072.192 2.19 3.077 5.729 2.868a2.845 2.845 0 0 1 2.768-3.415c1.881 0 2.285 1.077 2.285 1.077l1.345-.808c-.027 0-.163 1.345-.835 1.613l1.345-.268Z" fill="#571AFF"/><path fill-rule="evenodd" clip-rule="evenodd" d="M119.112 57.48a7.384 7.384 0 0 1-6.225 7.295v-5.159h1.719l.327-2.136h-2.046c-.069-1.779-.138-2.776 2.132-2.537v-1.816c-3.401-.75-4.819.975-4.438 4.353h-1.874v2.136h1.874v5.157c-8.821-1.357-7.784-14.709 1.151-14.674a7.38 7.38 0 0 1 7.38 7.381Z" fill="#571AFF"/></g><defs><clipPath id="a"><path fill="#fff" transform="translate(.933)" d="M0 0h184.134v160H0z"/></clipPath></defs></svg>
